!!!COM: Scarlatti, Domenico
!!!CDT: 1685///-1757///
!!!OTL: Sonata in C Minor, K.84, L.10
!!!SCT: K. 084
!!!SCT: L. 010
!!!OMD: Allegro
**kern	**kern	**dynam
*staff2	*staff1	*staff1/2
*Icemba	*Icemba	*Icemba
*>[A,A1,A,A2,B,B1,B,B2]	*>[A,A1,A,A2,B,B1,B,B2]	*>[A,A1,A,A2,B,B1,B,B2]
*>norep[A,A2,B,B2]	*>norep[A,A2,B,B2]	*>norep[A,A2,B,B2]
*>A	*>A	*>A
*clefF4	*clefG2	*clefG2
*k[b-e-a-]	*k[b-e-a-]	*k[b-e-a-]
*M3/4	*M3/4	*M3/4
*MM152	*MM152	*MM152
=1-	=1-	=1-
4CC/ 4C/	8r	.
.	8c'/L	f
4r	8e-'/	.
.	8g'/	.
4r	8cc'/	.
.	8ee-'/J	.
=2	=2	=2
2.r	(8gg^\L	.
.	8ccc\)	.
.	8gg'\	.
.	8ee-'\	.
.	8cc'\	.
.	8g\J	.
=3	=3	=3
8r	4c'/	.
8C'\L	.	.
8E-'\	4r	.
8G'\	.	.
8c'\	4r	.
8e-'\J	.	.
=4	=4	=4
(8g^\L	2.r	.
8cc\)	.	.
8g'\	.	.
8e-'\	.	.
8c'\	.	.
8G'\J	.	.
=5	=5	=5
4C'/	16r	.
.	(16gg\LL	<
.	16aan\	(
.	16bbn\JJ	(
*clefG2	*	*
4g'/	8ee-'\ 8ccc'\L)	[
.	8dd'\ 8bb'\	p
4g'/	8ee-'\ 8ccc'\	.
.	8dd'\ 8bb'\J	.
=6	=6	=6
16r	4ee-'\ 4ccc'\	<
(16g/LL	.	(
16an/	.	(
16bn/JJ	.	[
8e-'/ 8cc'/L)	4gg'\	p
8d'/ 8b'/	.	.
8e-'/ 8cc'/	4gg'\	.
8d'/ 8b'/J	.	.
=7	=7	=7
4e-'/ 4cc'/	16r	.
.	(16gg\LL	.
.	16aan\	.
.	16bbn\JJ	.
4g'/	8ee-'\ 8ccc'\L)	.
.	8dd'\ 8bb'\	p
4g'/	8ee-'\ 8ccc'\	.
.	8dd'\ 8bb'\J	.
=8	=8	=8
16r	4ee-'\ 4ccc'\	<
(16g/LL	.	(
16an/	.	(
16bn/JJ	.	(
8e-'/ 8cc'/L	4gg'\	(
8d'/ 8b'/)	.	[
8e-'/ 8cc'/	4gg'\	p
8d'/ 8b'/J	.	.
=9	=9	=9
*k[b-e-]	*k[b-e-]	*k[b-e-]
4e-'/ 4cc'/	8r	.
.	(8gg\L	f
2r	8ccc'\J)	.
*	*^	*
.	16r	8ee-'\L	.
.	16gg'/LL	.	.
.	16r	8ff'\	.
.	16aa-'/	.	.
.	16r	8dd'\J	.
.	16ff'/JJ	.	.
=10	=10	=10	=10
2.r	16r	8ee-'\L	.
.	16gg'/LL	.	.
.	16r	8bn'\	.
.	16dd'/	.	.
.	16r	8cc\	.
.	16ee-'/	.	.
.	16r	8g'\	.
.	16bn'/	.	.
.	16r	8a-'\	.
.	16cc'/	.	.
.	16r	8e-'\J	.
.	16g'/JJ	.	.
=11	=11	=11	=11
8f'\L	16r	8f'\L	.
.	16a-/LL	.	.
8d'\	16r	8d\	.
.	16f'/	.	.
8e-'\	16r	8e-\	.
.	16g'/	.	.
8Bn'\	16r	8Bn'\	.
.	16d'/	.	.
8c'\	16r	8c'\J	.
.	16e-'/	.	.
*	*v	*v	*
*clefF4	*	*
8F'/J	16r	.
.	16f'/JJ	.
=12	=12	=12
8GG'/	16r	<
.	(16d/LL	(
8r	16en/	(
.	16f#/JJ	(
4r	8Bn'/ 8g'/L)	(
.	8An'/ 8f#'/	(
4r	8B'/ 8g'/	[
.	8A'/ 8f#'/J	< [
=13	=13	=13
16r	8Bn'/ 8g'/	p
(16D\LL	.	.
16En\	8r	.
16F#\JJ	.	.
8BBn'\ 8G'\L)	4d'/	p
8AAn'\ 8F#'\	.	.
8BB'\ 8G'\	4d'/	.
8AA'\ 8F#'\J	.	.
=14	=14	=14
8BBn'\ 8G'\	8r	.
8r	8gg'\L	.
4c'\	8a-\ (8ffn\	p
.	8g\ 8een\)	.
4c'\	8a-'\ 8ff'\	.
.	8g'\ 8ee'\J	.
=15	=15	=15
16r	8a-'\ 8ff'\	<
(16c\LL	.	(
16d\	8r	(
16en\JJ	.	[
8A-'\ 8f'\L)	4cc'\	p
8G'\ 8e'\	.	.
8A-'\ 8f'\	4cc'\	.
8G'\ 8e'\J	.	.
=16	=16	=16
8A-'\ 8f'\	8r	.
8r	8a-'\ 8ff'\L	p
4B-'\	8g\ (8ee-\	.
.	8f\ 8dd\)	.
4B-'\	8g'\ 8ee-'\	.
.	8f'\ 8dd'\J	.
=17	=17	=17
16r	8g'\ 8ee-'\	<
(16B-\LL	.	(
16c\	8r	(
16d\JJ	.	[
8G'\ 8e-'\L)	4b-'\	p
8F'\ 8d'\	.	.
8G'\ 8e-'\	4b-'\	.
8F'\ 8d'\J	.	.
=18	=18	=18
8G'\ 8e-'\	8r	.
8r	8g'/ 8ee-'/L	.
(4FF/ 4F/	(8g/ 8ee-/	mf
.	8f/) 8dd/	.
4FF#/ 4F#/	(8fn/ 8dd/	.
.	8e-/) 8cc/J	.
=19	=19	=19
4GG/) 4G/	8e-/ 8cc/L	.
.	8d/ 8bn/	.
4r	8d/ 8b/	.
.	8e-/ 8cc/	.
4r	8e-/ 8cc/	.
.	8f/ 8dd/J	.
=20	=20	=20
4GG\ 4G\	8f\ (8dd\L	.
.	8g\ 8ee-\)	.
4r	8g\ (8ee-\	.
.	8a-\ 8ff\)	.
4r	8a-\ (8ff\	.
.	8bn\ 8dd\J)	.
=21	=21	=21
4GG\ 4G\	8bn\ (8dd\L	.
.	8cc\ 8ee-\)	.
4r	8cc\ (8ee-\	.
.	8dd\ 8ff\)	.
4r	8dd\ (8ff\	.
.	8ee-\ 8gg\J)	.
=22	=22	=22
4GG\ 4G\	8ee-\ (8gg\L	.
.	8dd\ 8ff\)	.
4r	8dd\ (8ff\	.
.	8cc\ 8ee-\J)	.
4r	8cc\ (8ee-\L	.
.	16bn\ 16dd\L	.
.	16an\ 16cc\JJ	.
=23	=23	=23
4GG\ 4G\	8bn'\ 8dd'\L)	.
.	8gg'\	f
*	*^	*
4r	(4ccc/	8aa-\	.
.	.	8ff#\	.
4r	4bbn/	8gg\	.
.	.	8dd\J	.
=24	=24	=24	=24
4GG\ 4G\	4ccc/	8ee-\L	>
.	.	8cc\	)
4r	4aa-/	8ffn\	)
.	.	8dd\	)
4r	4gg/	8ee-\	)
.	.	8cc\J)	)
=25	=25	=25	=25
4GG/ 4G/	(4ff/	8dd-\L	)
.	.	8bn\	)
4r	4ee-/	8cc\	)
.	.	8g\	)
4r	4cc/	8a-\	)
.	.	8f#\J	)
=26	=26	=26	=26
4GG/ 4G/	4bn/	8g\L	)
.	.	8dn\	)
4r	4cc/	8e-\	)
.	.	8c\	)
4r	4a-/	8f\	)
.	.	8d\J	)
=27	=27	=27	=27
4GG/ 4G/	4g/	8e-\L	)
.	.	8c\	)
4r	4f/	8d-\	)
.	.	8Bn\J	)
*	*v	*v	*
4r	8e-/L)	)
.	(16B/ 16dn/L	)
.	16An/ 16c/JJ	]
=28	=28	=28
16r	8G/) 8Bn/	p
16GG\LL	.	.
16AAn\	8r	.
16BBn\	.	.
16C\	4r	.
16D\	.	.
16En\	.	.
16F#\JJ	.	.
16G\	16r	.
16r	(16An/LL	.
8r	16B/	.
.	16c/JJ	.
=29	=29	=29
2.r	8d'/)	.
.	(16en\LL	.
.	16f#\JJ	.
.	16g\	.
.	16an/LL	.
.	16bn/	.
.	16cc/JJ	.
.	8dd'/)	.
.	(16een\LL	.
.	16ff#\JJ	.
=30	=30	=30
*	*^	*
2.r	16r	8gg'\L)	f
.	16gg/LL	.	.
.	16dd'/	8dd'\	.
.	16dd'/	.	.
.	16r	8bn'\	.
.	16b'/	.	.
.	16r	8g'\	.
.	16g'/	.	.
.	16r	8d'\	.
.	16d'/	.	.
.	16r	8Bn'\J	.
.	16B'/JJ	.	.
*	*v	*v	*
=31	=31	=31
*>A1	*>A1	*>A1
(4GG^/	2.r	.
8G'\L)	.	.
8D'\	.	.
8BBn'\	.	.
8D'\J	.	.
=32:|!|:	=32:|!|:	=32:|!|:
*>A2	*>A2	*>A2
4GG^/	8r	.
.	(8G/L	f
4r	8Bn/)	.
.	8d'/	.
4r	8g'/	.
.	8bn'/J	.
=33	=33	=33
*>B	*>B	*>B
8r	4dd^\	.
(8GG/L	.	.
8BBn/)	4r	.
8D'/	.	.
8G'/	4r	.
8Bn'/J	.	.
=34	=34	=34
4d\	8r	.
.	8f#'/ 8dd'/L	>
4r	(8f#/ 8dd/	)
.	8e-/) 8cc/	)
4r	(8e-/ 8cc/	]
.	8d/) 8b-/J	mf
=35	=35	=35
2.r	(8d/ 8b-/L	.
.	8c/) 8an/	.
.	(8c/ 8a/	.
.	8B-/) 8g/	.
.	(8B-/ 8g/	.
.	8An/) 8f#/J	.
=36	=36	=36
8r	8An'/ 8f#'/	.
8B-'\ 8g'\L	8r	.
8B-\ (8g\	4r	.
8An\ 8fn\)	.	.
8A\ (8f\	4r	.
8G\ 8e-\J)	.	.
=37	=37	=37
8G\ (8e-\L	2.r	.
8F#\ 8d\)	.	.
8F#\ (8d\	.	.
8E-\ 8c#\)	.	.
8En\ (8c#\	.	.
8D\ 8d\J)	.	.
=38	=38	=38
8D'\ 8d'\	8r	.
8r	(8dd^\L	f
8r	8ee-'\J)	.
*	*^	*
4.r	16r	8an'\L	.
.	16cc'/LL	.	.
.	16r	8b-\	.
.	16dd'/	.	.
.	16r	8f#'\J	.
.	16a'/JJ	.	.
=39	=39	=39	=39
8g'\L	16r	8g'\L	.
.	16b-'/LL	.	.
8d'\	16r	8d'\	.
.	16f#'/	.	.
8e-'\	16r	8e-'\	.
.	16g'/	.	.
8B-'\	16r	8B-'\	.
.	16d'/	.	.
8c'\	16r	8c'\J	.
.	16e-'/	.	.
*	*v	*v	*
8An'/J	16r	.
.	16c'/JJ	.
=40	=40	=40
8B-'\	8r	.
8r	(8gg^\L	.
8r	8aa-'\J)	.
*	*^	*
4.r	16r	8dd'\L	.
.	16ffn'/LL	.	.
.	16r	8ee-'\	.
.	16gg'/	.	.
.	16r	8bn'\J	.
.	16dd'/JJ	.	.
=41	=41	=41	=41
8c'\L	16r	8cc'\L	.
.	16ee-'/LL	.	.
8g'	16r	8g'\	.
.	16bn'/	.	.
8a-'	16r	8a-'\	.
.	16cc'/	.	.
8e-'	16r	8e-'\	.
.	16g'/	.	.
8f'	16r	8f'\J	.
.	16a-'/	.	.
*	*v	*v	*
8d'/J	16r	.
.	16f'/JJ	.
=42	=42	=42
4e-'\	8r	.
.	8g'\ 8gg'\	p
*	*^	*
4d\	(8gg/L	4an\	.
.	8ff/J)	.	.
4G\	(8ff/L	4bn\	.
.	16ee-/L	.	.
.	16dd/JJ	.	.
=43	=43	=43	=43
4C/	8ee-'/L)	4cc'\	.
.	8ccc/J	.	.
4C/	(8ccc/L	4dd\	.
.	8bb-/J)	.	.
4C/	8bb-/L	(4een\	.
.	16aa-/L	.	.
.	16gg/JJ	.	.
*	*v	*v	*
=44	=44	=44
*^	*	*
8r	4F'\	4ff'\) 4aa-'\	mf
8f/L	.	.	.
8f/	4F\	4ff\ (4aa-\	.
8e-/J	.	.	.
4e-/	8G\L	4ee-\ 4gg\	.
.	8A-\J	.	.
*v	*v	*	*
=45	=45	=45
4B-'\ 4d'\	8dd'\ 8ff'\L)	.
.	8b-'\ 8bb-'\J	p
*	*^	*
4BB-/	(8bb-/L	4cc\	.
.	8aa-/J)	.	.
4BB-/	8aa-/L	(4dd\	.
.	16gg/L	.	.
.	16ff/JJ	.	.
*	*v	*v	*
=46	=46	=46
*^	*	*
8r	4E-'\	4ee-'\) 4gg'\	.
8e-/L	.	.	.
8e-/	4E-\	4ee-\ (4gg\	.
8d/J	.	.	.
4d/	8F\L	4dd\ 4ff\	.
.	8G\J	.	.
*v	*v	*	*
=47	=47	=47
4A-'\ 4c'\	8cc'\ 8ee-'\L)	.
.	8a-'\ 8aa-'\J	p
*	*^	*
4AA-/	(8aa-/L	4b-\	.
.	8gg/J)	.	.
4AA-/	(8gg/L	4cc\	.
.	16ff/L	.	.
.	16ee-/JJ	.	.
*	*v	*v	*
=48	=48	=48
*^	*	*
8r	4D'\	4dd'\ 4ff'\)	mf
8d'/L	.	.	.
8d/	4D\	4dd\ (4ff\	.
8c/J	.	.	.
4c/	8E-\L	4cc\ 4ee-\	.
.	8F\J	.	.
*v	*v	*	*
=49	=49	=49
4G'\ 4Bn'\	8bn'\ 8dd'\L)	.
.	8g'\ 8gg'\J	p
*	*^	*
4GG/	(8gg/L	4an\	.
.	8ff/J)	.	.
4GG/	8ff/L	(4b\	.
.	16ee-/L	.	.
.	16dd/JJ	.	.
=50	=50	=50	=50
4C'/	4ee-'/	8cc'\L)	f
.	.	(8g\	.
4F\	4dd/	8a-\	.
.	.	8f\	.
4A-\	4cc/	8e-\	.
.	.	8c\J	.
=51	=51	=51	=51
8G'\	8d'\)	8bn/	.
*	*v	*v	*
8r	8aa-'\ 8ccc'\L	.
4r	8aa-\ (8ccc\	.
.	8gg\ 8bbn\)	.
4r	8gg\ (8bb\	.
.	8aa-\ 8ccc\J)	.
=52	=52	=52
*^	*	*
4r	4GG\	8aa-\ (8ccc\L	.
.	.	8gg\ 8bb-\)	.
(4G/	4r	8gg\ (8bb-\	.
.	.	8ff#\ 8aan\)	.
4F#/	4r	8ff#\ (8aa\	.
.	.	8gg\ 8bb-\J)	.
=53	=53	=53	=53
4G/	4GG\	8gg\ 8bb-\L	.
.	.	8ffn\ 8aa-\	.
4Fn/	4r	8ff\ 8aa-\	.
.	.	8een\ 8gg\	.
4En/	4r	8ee\ 8gg\	.
.	.	8ff\ 8aa-\J	.
=54	=54	=54	=54
4F/	4GG\	8ff\ 8aa-\L	.
.	.	8ee-\ 8gg\	.
4E-/	4r	8ee-\ 8gg\	.
.	.	8dd\ 8ff#\	.
4D/	4r	8dd\ 8ff#\	.
.	.	8ee-\ 8gg\J	.
=55	=55	=55	=55
4E-/	4GG\	8ee-\ 8gg\L	.
.	.	8dd-\ 8ff\	.
4D-/	4r	8dd-\ 8ff\	.
.	.	8cc\ 8een\	.
4C/	4r	8cc\ 8ee\	.
.	.	8dd-\ 8ff\J	.
=56	=56	=56	=56
4D-/	4GG\	8dd-\ 8ff\L	.
.	.	8cc\ 8ee-\	.
4C/	4r	8cc\ 8ee-\	.
.	.	8bn\ 8ddn\	.
4BBn/	4r	8b\ 8dd\	.
.	.	8cc\ 8ee-\J	.
*v	*v	*	*
=57	=57	=57
*	*^	*
4GG/ 4G/)	4ee-/	8cc\L	.
.	.	8g\	.
4r	4cc/	8a-\	.
.	.	8f#\	.
4r	4bn'/	8g\	.
.	.	8d\J	.
=58	=58	=58	=58
4GG/ 4G/	4cc/	8e-\L	.
.	.	8c\	.
4r	4a-/	8fn\	.
.	.	8d\	.
4r	4g/	8e-\	.
.	.	8c\J	.
=59	=59	=59	=59
4GG\ 4G\	4f/	8d-\L	.
.	.	8Bn\J	.
4r	4e-/	16c\LL	<
.	.	16G\	(
.	.	16An\	(
.	.	16B\JJ	(
*	*v	*v	*
4r	16c/LL	(
.	16dn/	(
.	16e-/	(
.	16f/JJ	[
=60	=60	=60
8r	4g/	>
8G'\ 8e-'\L	.	)
8G\ (8e-\	4g/	)
8F\ 8d\)	.	)
8F\ (8d\	4g/	)
8E-\ 8c\J)	.	]
=61	=61	=61
8E-\ (8c\L	4g/	p
8D\ 8B-\)	.	.
8D\ (8B-\	4g/	.
8C\ 8A-\)	.	.
8C\ (8A-\	4g/	.
8BBn\ 8G\J)	.	.
=62	=62	=62
4BBn'\ 4G'\	16r	.
.	(16d/LL	<
.	16e-/	(
.	16f/	(
8r	16g/	(
.	32an/L	(
.	32bn/J	(
8BB'\ 8G'\	16cc'/	(
.	16dd'/JJ)	[
4C^\ 4G^\	(8ee-^\L	f
.	8cc\J)	.
=63	=63	=63
4BBn'\ 4G'\	16r	.
.	(16d/LL	.
.	16e-/	.
.	16f/	<
8r	16g/	(
.	32an/L	(
.	32bn/J	(
*^	*	*
8G/	8BB'\L	16cc'/)	[
.	.	16dd'/JJ	>
4G^/	(8C\	(8ee-^\L	)
.	8E-\J)	8cc\J)	]
*v	*v	*	*
=64	=64	=64
*	*^	*
(4F\	8r	(4a-\	p
.	8ff/L	.	.
4G\	8ee-/	4g\	.
.	8cc/	.	.
4GG/)	8dd/	4f\)	.
.	8bn/J	.	.
*	*v	*v	*
=65	=65	=65
4BBn'\ 4G'\	16r	.
.	(16d/LL	<
.	16e-/	(
.	16f/	(
8r	16g/	(
.	32an/L	(
.	32bn/J	(
8BB'\ 8G'\	16cc'/)	(
.	16dd'/JJ	[
4C^\ 4G^\	(8ee-^\L	f
.	8cc\J)	.
=66	=66	=66
4BBn'\ 4G'\	16r	.
.	(16d/LL	.
.	16e-/	<
.	16f/	(
8r	16g/	(
.	32an/L	(
.	32bn/J	(
*^	*	*
8G/	8BB'\L	16cc'/)	(
.	.	16dd'/JJ	[
4G^/	(8C\	(8ee-^\L	>
.	8E-\J)	8cc\J)	]
*v	*v	*	*
=67	=67	=67
8F/L	(8a-\L	mf
8FF/J	8dd\J	.
4G\	8e-/L	.
.	8cc/J	.
4GG/	8d/L	.
.	8bn/J	.
=68	=68	=68
16r	4e-/ 4cc/)	p
16C\LL	.	.
16D\	.	.
16E-\	.	.
16F\	4r	.
16G\	.	.
16An\	.	.
16Bn\JJ	.	.
16c\	16r	.
16r	(16d/LL	.
8r	16e-/	.
.	16f/JJ	.
=69	=69	=69
2.r	8g'/)	.
.	(16an\LL	.
.	16bn\JJ	.
.	16cc\	.
.	16dd/LL	.
.	16ee-/	.
.	16ff/JJ	.
.	8gg'/)	.
.	(16aan\LL	.
.	16bbn\JJ	.
=70	=70	=70
*	*^	*
2.r	16r	8ccc'\L)	f
.	16ccc'/LL	.	.
.	16r	8gg'\	.
.	16gg'/	.	.
.	16r	8ee-'\	.
.	16ee-'/	.	.
.	16r	8cc'\	.
.	16cc'/	.	.
.	16r	8g'\	.
.	16g'/	.	.
.	16r	8e-'\J	.
.	16e-'/JJ	.	.
*	*v	*v	*
=71	=71	=71
*>B1	*>B1	*>B1
4CC^/	2.r	.
8c'\L	.	.
8G'\	.	.
8E-'\	.	.
8C'\J	.	.
=72:|!	=72:|!	=72:|!
*>B2	*>B2	*>B2
4CC/	2.r	.
4r	.	.
4r	.	.
==	==	==
*-	*-	*-
!!!ENC: Kelly Leistikow
!!!END: 2005/07/26
!!!ONB: Translated into Humdrum from MusicXML by Craig Sapp 2005/07/26/
